icon-themes/sifr_svg/cmd/sc_tablemodefix.svg

<svg viewBox="0 0 16 16" xmlns="http://www.w3.org/2000/svg"><path d="m1 1v7h2v-2h3v2h1v-2h3v2h1v-2h3v2h2v-7zm2 2h3v2h-3zm4 0h3v2h-3zm4 0h3v2h-3zm-10 7v6h2v-2h3v-2h-3v-2zm13 0v2h-3v2h3v2h2v-6z" fill="#555753"/></svg>

<svg xmlns="http://www.w3.org/2000/svg" viewBox="0 0 16 16">
  <path
     style="fill:#555753"
     d="M 1,1 V 8 H 3 V 6 H 6 V 8 H 7 V 6 h 3 v 2 h 1 V 6 h 3 v 2 h 2 V 1 Z M 3,3 H 6 V 5 H 3 Z m 4,0 h 3 V 5 H 7 Z m 4,0 h 3 V 5 H 11 Z M 1,10 v 6 H 3 V 14 H 6 V 12 H 3 v -2 z m 13,0 v 2 h -3 v 2 h 3 v 2 h 2 v -6 z"
     />
</svg>
